X: 26
T:G-Dur-Schleuniger #19
M:3/4
L:1/8
C:trad
R:Schleuniger
S:j.m. schmalnauer: "tanz musik", bhlau, wien 1996 (compa bd. 5) 
N:ganze Applikatur
K:G
BG,DG,cG,|[G,6G6]   |AG,DG,BG,|[G,6G6]   |
BG,DG,cG,|G2 G,GG,G|AG,DG,BG,|[G,6G6]   |
"&G-Saite---"(ADADAD)|"G----------"BDBDBD|"G----------"cDcDcD|BdgdBG|
"&G-Saite---"(ADADAD)|"G----------"BDBDBD|"G----------"cDcDAD|[G,4G4   ]
|
|
